X: 35735
T: Säkkijärven Polkka
R: polka
M: 2/4
K: Eminor
eB AG|{G/A/}GF FF|B/A/A/A/ GA|{F/G/}FE EE|
e{B/c/}B AG|{G/A/}GF FF|BB/^A/ c^d|ee e:|
Be e/^d/e/f/|e^d dd|Bf f/e/f/g/|{fg}fe ee|
be e/^d/e/f/|{ef}e^d dd|b{ab}a gf|ee e:|

